X: 1
T: Ornette's Trip To Belfast
R: reel
M: 4/4
L: 1/8
K: Dmin
|d3e fede|c3A dcAG|F3G Ac(3ccc|cdfg agfe|
d3e fede|c3A dcAG|F3G Ac(3ccc|cdfg f2fe|
d3e fede|c3A dcAG|FcGF Ac(3ccc|cdfg agfe|
d3e fede|c3A dcAG|FcGF Ac(3ccc|cdfg f4|
|:a2c'a ad'c'a|c'aga fd(3ddd|a2c'a ad'c'a|c'aga f2(3def|
abaf d3f|c3B ABcA|FcGF Ac(3ccc|1cdfg f3g:|2cdfg f2ed||


Tune 2712	Setting 28904

